resources/svg/camera-off-fill.svg

<svg fill="currentColor" viewBox="0 0 24 24" xmlns="http://www.w3.org/2000/svg"><path d="M19.5869 21.0002H3.00113C2.44885 21.0002 2.00113 20.5524 2.00113 20.0002V6.00016C2.00113 5.44787 2.44885 5.00016 3.00113 5.00016H3.58692L1.39453 2.80777L2.80874 1.39355L22.6077 21.1925L21.1935 22.6068L19.5869 21.0002ZM7.55641 8.96965C6.59 10.0347 6.00113 11.4487 6.00113 13.0002C6.00113 16.3139 8.68742 19.0002 12.0011 19.0002C13.5526 19.0002 14.9665 18.4113 16.0316 17.4449L14.6149 16.0281C13.9139 16.6338 13.0003 17.0002 12.0011 17.0002C9.79199 17.0002 8.00113 15.2093 8.00113 13.0002C8.00113 12.001 8.36747 11.0874 8.97315 10.3864L7.55641 8.96965ZM22.0011 17.786L17.9559 13.7407C17.9858 13.498 18.0011 13.2509 18.0011 13.0002C18.0011 9.68645 15.3148 7.00016 12.0011 7.00016C11.7504 7.00016 11.5032 7.01554 11.2606 7.04541L8.10823 3.89306L9.00113 3.00016H15.0011L17.0011 5.00016H21.0011C21.5534 5.00016 22.0011 5.44787 22.0011 6.00016V17.786ZM13.5095 9.29431C14.5055 9.70011 15.3012 10.4958 15.707 11.4918L13.5095 9.29431Z"/></svg>

<svg xmlns="http://www.w3.org/2000/svg" viewBox="0 0 24 24" fill="currentColor">
    <g>
        <path fill="none" d="M0 0h24v24H0z"/>
        <path d="M19.586 21H3a1 1 0 0 1-1-1V6a1 1 0 0 1 1-1h.586L1.393 2.808l1.415-1.415 19.799 19.8-1.415 1.414L19.586 21zM7.556 8.97a6 6 0 0 0 8.475 8.475l-1.417-1.417a4 4 0 0 1-5.642-5.642L7.555 8.97zM22 17.785l-4.045-4.045a6 6 0 0 0-6.695-6.695L8.106 3.892 9 3h6l2 2h4a1 1 0 0 1 1 1v11.786zm-8.492-8.492a4.013 4.013 0 0 1 2.198 2.198l-2.198-2.198z"/>
    </g>
</svg>
